icons/mobile/24/svg/sync-tabs-24.svg

<svg width="24" height="24" viewBox="0 0 24 24" fill="none" xmlns="http://www.w3.org/2000/svg">
<path fill-rule="evenodd" clip-rule="evenodd" d="M19.25 9.99959C19.9632 9.99959 20.6433 10.0238 21.2871 10.066C22.7944 10.1653 23.9999 11.3977 24 12.9381V20.0592C24 21.5537 22.8469 22.8275 21.335 22.9293C20.5958 22.9786 19.8984 22.9996 19.25 22.9996C18.5368 22.9996 17.8567 22.9754 17.2129 22.9332C15.7056 22.8338 14.5 21.6015 14.5 20.0611V12.94C14.5001 11.4455 15.6531 10.1716 17.165 10.0699C17.9042 10.0206 18.6016 9.99959 19.25 9.99959ZM19.25 11.7496C18.6385 11.7496 17.9809 11.7694 17.2822 11.816C16.7106 11.8546 16.2501 12.345 16.25 12.94V18.9996H22.25V12.9381C22.2499 12.3487 21.7893 11.8539 21.1729 11.8131C20.5647 11.7732 19.9228 11.7496 19.25 11.7496Z" fill="black"/>
<path d="M3.66504 2.44686C7.83893 1.85688 12.1218 1.85402 16.3057 2.44198C17.8416 2.65797 18.9999 3.99067 19 5.54158V8.50936C18.42 8.51436 17.834 8.53976 17.25 8.57576V5.54158C17.2499 4.85867 16.7395 4.27039 16.0615 4.1744C14.0577 3.89345 12.0178 3.75057 10 3.75057C7.97104 3.75057 5.92214 3.89627 3.90918 4.18026C3.24822 4.27325 2.75006 4.85671 2.75 5.53866V12.4596C2.75 13.1426 3.26048 13.7307 3.93848 13.8267C6.93132 14.2467 9.98016 14.3501 13 14.1431V16.8756H0.875C0.392 16.8756 0 16.4836 0 16.0006C0.000112468 15.5177 0.392069 15.1256 0.875 15.1256H2.51172C1.60388 14.5705 1 13.5744 1 12.4596V5.53866C1.00006 3.98971 2.14508 2.66085 3.66504 2.44686Z" fill="black"/>
</svg>

<!-- This Source Code Form is subject to the terms of the Mozilla Public
   - License, v. 2.0. If a copy of the MPL was not distributed with this
   - file, You can obtain one at http://mozilla.org/MPL/2.0/. -->
<svg xmlns="http://www.w3.org/2000/svg" width="24" height="24" fill="none" viewBox="0 0 24 24">
    <path fill="#000" fill-rule="evenodd" d="M19.25 10q1.07.002 2.037.066c1.507.1 2.713 1.332 2.713 2.872v7.121c0 1.495-1.153 2.768-2.665 2.87a31 31 0 0 1-4.122.004c-1.507-.1-2.713-1.331-2.713-2.872V12.94c0-1.495 1.153-2.768 2.665-2.87.74-.05 1.437-.07 2.085-.07m0 1.75c-.611 0-1.27.02-1.968.066a1.123 1.123 0 0 0-1.032 1.124V19h6v-6.062c0-.59-.46-1.084-1.077-1.125a29 29 0 0 0-1.923-.063" clip-rule="evenodd" />
    <path fill="#000" d="M3.665 2.447a45.4 45.4 0 0 1 12.64-.005A3.144 3.144 0 0 1 19 5.542v2.967c-.58.005-1.166.03-1.75.067V5.542c0-.683-.51-1.272-1.189-1.368A44 44 0 0 0 10 3.751c-2.029 0-4.078.145-6.09.43a1.37 1.37 0 0 0-1.16 1.358v6.92c0 .684.51 1.272 1.188 1.368a43.8 43.8 0 0 0 9.062.316v2.733H.875a.875.875 0 0 1 0-1.75h1.637A3.14 3.14 0 0 1 1 12.46V5.539c0-1.55 1.145-2.878 2.665-3.092" />
</svg>
